src/images/icons/download-gray-icon.svg

<svg width="25" height="24" viewBox="0 0 25 24" fill="none" xmlns="http://www.w3.org/2000/svg">
<path fill-rule="evenodd" clip-rule="evenodd" d="M13.5 3.00006C13.5 2.58585 13.1642 2.25006 12.75 2.25006C12.3358 2.25006 12 2.58585 12 3.00006V15.1894L9.28033 12.4697C8.98744 12.1768 8.51256 12.1768 8.21967 12.4697C7.92678 12.7626 7.92678 13.2375 8.21967 13.5304L12.2197 17.5304C12.3603 17.671 12.5511 17.7501 12.75 17.7501C12.9489 17.7501 13.1397 17.671 13.2803 17.5304L17.2803 13.5304C17.5732 13.2375 17.5732 12.7626 17.2803 12.4697C16.9874 12.1768 16.5126 12.1768 16.2197 12.4697L13.5 15.1894V3.00006ZM8.25 8.24998L7.54998 8.24999H7.51788C6.70504 8.24998 6.04943 8.24998 5.51852 8.29336C4.97189 8.33802 4.49175 8.43238 4.04753 8.65872C3.34192 9.01825 2.76825 9.59192 2.40872 10.2975C2.18239 10.7417 2.08803 11.2219 2.04336 11.7685C1.99999 12.2994 1.99999 12.955 2 13.7679V13.7679V13.8V16.2V16.2321V16.2321C1.99999 17.0449 1.99999 17.7006 2.04336 18.2315C2.08803 18.7781 2.18239 19.2582 2.40873 19.7025C2.76825 20.4081 3.34193 20.9817 4.04754 21.3413C4.49175 21.5676 4.9719 21.662 5.51853 21.7066C6.04944 21.75 6.70505 21.75 7.51788 21.75H7.55L17.95 21.75H17.9821C18.7949 21.75 19.4506 21.75 19.9815 21.7066C20.5281 21.662 21.0082 21.5676 21.4525 21.3413C22.1581 20.9818 22.7317 20.4081 23.0913 19.7025C23.3176 19.2582 23.412 18.7781 23.4566 18.2315C23.5 17.7006 23.5 17.045 23.5 16.2321V16.2V13.8V13.7679C23.5 12.955 23.5 12.2994 23.4566 11.7685C23.412 11.2219 23.3176 10.7417 23.0913 10.2975C22.7318 9.59192 22.1581 9.01825 21.4525 8.65872C21.0083 8.43238 20.5281 8.33802 19.9815 8.29336C19.4506 8.24998 18.795 8.24998 17.9821 8.24999H17.9821H17.95L17.25 8.24998H17.25L16.75 8.25C16.3358 8.25001 16 8.58581 16 9.00002C16 9.41424 16.3358 9.75001 16.75 9.75L17.25 9.74998H17.25L17.95 9.74999C18.8025 9.74999 19.3967 9.75057 19.8593 9.78837C20.3132 9.82546 20.574 9.89459 20.7715 9.99523C21.1948 10.2109 21.5391 10.5552 21.7548 10.9785C21.8554 11.176 21.9245 11.4368 21.9616 11.8907C21.9994 12.3533 22 12.9475 22 13.8V16.2C22 17.0525 21.9994 17.6467 21.9616 18.1093C21.9245 18.5632 21.8554 18.824 21.7548 19.0215C21.539 19.4448 21.1948 19.789 20.7715 20.0048C20.574 20.1054 20.3132 20.1745 19.8593 20.2116C19.3967 20.2494 18.8025 20.25 17.95 20.25L7.55 20.25C6.69755 20.25 6.10331 20.2494 5.64068 20.2116C5.1868 20.1745 4.92604 20.1054 4.72852 20.0048C4.30516 19.789 3.96095 19.4448 3.74524 19.0215C3.6446 18.824 3.57547 18.5632 3.53838 18.1093C3.50058 17.6467 3.5 17.0525 3.5 16.2V13.8C3.5 12.9475 3.50058 12.3533 3.53838 11.8907C3.57547 11.4368 3.6446 11.176 3.74524 10.9785C3.96095 10.5552 4.30515 10.2109 4.72852 9.99523C4.92603 9.89459 5.1868 9.82546 5.64067 9.78837C6.1033 9.75057 6.69754 9.74999 7.54999 9.74999L8.24998 9.74998H8.25L8.74998 9.75C9.16419 9.75001 9.49999 9.41424 9.5 9.00002C9.50001 8.58581 9.16424 8.25001 8.75002 8.25L8.25002 8.24998H8.25Z" fill="#8FA4B3"/>
</svg>

<svg width="25" height="24" fill="none" xmlns="http://www.w3.org/2000/svg"><path fill-rule="evenodd" clip-rule="evenodd" d="M13.5 3A.75.75 0 0 0 12 3v12.19l-2.72-2.72a.75.75 0 1 0-1.06 1.06l4 4a.75.75 0 0 0 1.06 0l4-4a.75.75 0 0 0-1.06-1.06l-2.72 2.72V3ZM8.25 8.25h-.732c-.813 0-1.469 0-2 .043-.546.045-1.026.14-1.47.366a3.75 3.75 0 0 0-1.64 1.638c-.226.445-.32.925-.365 1.471C2 12.3 2 12.955 2 13.768v2.464c0 .813 0 1.469.043 2 .045.546.14 1.026.366 1.47a3.75 3.75 0 0 0 1.639 1.64c.444.226.924.32 1.47.365.531.043 1.187.043 2 .043h10.464c.813 0 1.469 0 2-.043.546-.045 1.026-.14 1.47-.366a3.75 3.75 0 0 0 1.64-1.639c.226-.444.32-.924.365-1.47.043-.531.043-1.187.043-2v-2.464c0-.813 0-1.469-.043-2-.045-.546-.14-1.026-.366-1.47a3.75 3.75 0 0 0-1.639-1.64c-.444-.226-.924-.32-1.47-.365-.531-.043-1.187-.043-2-.043H16.75a.75.75 0 0 0 0 1.5h1.2c.852 0 1.447 0 1.91.038.453.037.714.107.912.207.423.216.767.56.983.984.1.197.17.458.207.912.037.462.038 1.056.038 1.909v2.4c0 .852 0 1.447-.038 1.91-.038.453-.107.714-.207.912-.216.423-.56.767-.983.983-.198.1-.459.17-.913.207-.462.037-1.057.038-1.909.038H7.55c-.852 0-1.447 0-1.91-.038-.453-.038-.714-.107-.911-.207a2.25 2.25 0 0 1-.984-.983c-.1-.198-.17-.459-.207-.913-.037-.462-.038-1.057-.038-1.909v-2.4c0-.853 0-1.447.038-1.91.037-.453.107-.714.207-.912a2.25 2.25 0 0 1 .984-.983c.197-.1.458-.17.912-.207.462-.037 1.057-.038 1.909-.038h1.2a.75.75 0 1 0 0-1.5h-.5Z" fill="#8FA4B3"/></svg>
